;FLAVOR:Marlin
;TIME:13785
;Filament used: 9.10488m
;Layer height: 0.2
;MINX:60.82
;MINY:82.242
;MINZ:0.2
;MAXX:199.18
;MAXY:177.758
;MAXZ:33
;Generated with Cura_SteamEngine 4.13.1
M140 S50
M105
M190 S50
M104 S220
M105
M109 S220
M82 ;absolute extrusion mode

G28 ;Home

G92 E0 ;Reset Extruder
G1 Z2.0 F3000 ;Move Z Axis up
G1 X10.1 Y20 Z0.28 F5000.0 ;Move to start position
G1 X10.1 Y200.0 Z0.28 F1500.0 E15 ;Draw the first line
G1 X10.4 Y200.0 Z0.28 F5000.0 ;Move to side a little
G1 X10.4 Y20 Z0.28 F1500.0 E30 ;Draw the second line
G92 E0 ;Reset Extruder
G1 Z2.0 F3000 ;Move Z Axis up

G92 E0
G92 E0
G1 F1500 E-10
;LAYER_COUNT:165
;LAYER:0
M107
G0 F6000 X64.444 Y108.501 Z0.2
;TYPE:SKIRT
G1 F1500 E0
G1 F1200 X65.124 Y108.1 E0.02626
G1 X65.842 Y107.77 E0.05254
G1 X66.589 Y107.515 E0.07879
G1 X67.358 Y107.336 E0.10505
G1 X68.142 Y107.236 E0.13134
G1 X68.732 Y107.213 E0.15098
G1 X83.638 Y107.204 E0.64675
G1 X84.52 Y105.302 E0.71649
G1 X84.888 Y104.603 E0.74276
G1 X85.123 Y104.231 E0.75739
G1 X85.629 Y103.555 E0.78548
G1 X92.306 Y95.569 E1.1317
G1 X92.926 Y94.91 E1.1618
G1 X92.945 Y94.892 E1.16267
G1 X93.823 Y94.173 E1.20041
G1 X102.347 Y88.181 E1.54696
G1 X103.225 Y87.647 E1.58114
G1 X103.248 Y87.635 E1.582
G1 X104.176 Y87.225 E1.61575
G1 X113.961 Y83.645 E1.96229
G1 X114.695 Y83.417 E1.98786
G1 X115.468 Y83.256 E2.01412
G1 X115.969 Y83.195 E2.03091
G1 X126.343 Y82.267 E2.37732
G1 X127.35 Y82.242 E2.41083
G1 X127.375 Y82.243 E2.41166
G1 X128.404 Y82.353 E2.44608
G1 X138.667 Y84.144 E2.79259
G1 X139.534 Y84.347 E2.8222
G1 X140.633 Y84.759 E2.86124
G1 X150.08 Y89.142 E3.20762
G1 X150.778 Y89.511 E3.23388
G1 X151.148 Y89.744 E3.24842
G1 X151.824 Y90.25 E3.27651
G1 X159.81 Y96.927 E3.62273
G1 X160.469 Y97.547 E3.65282
G1 X160.487 Y97.566 E3.6537
G1 X161.206 Y98.444 E3.69144
G1 X167.198 Y106.968 E4.03799
G1 X167.34 Y107.201 E4.04706
G1 X188.289 Y107.201 E4.74383
G1 X189.078 Y107.241 E4.77011
G1 X189.858 Y107.36 E4.79635
G1 X190.623 Y107.558 E4.82263
G1 X191.363 Y107.832 E4.84888
G1 X192.072 Y108.18 E4.87515
G1 X192.743 Y108.598 E4.90144
G1 X193.162 Y108.91 E4.91882
G1 X193.272 Y108.998 E4.9235
G1 X193.862 Y109.522 E4.94975
G1 X194.397 Y110.103 E4.97601
G1 X194.871 Y110.735 E5.00229
G1 X195.278 Y111.412 E5.02856
G1 X195.614 Y112.126 E5.05481
G1 X195.877 Y112.871 E5.08109
G1 X195.999 Y113.334 E5.09701
G1 X198.977 Y126.231 E5.53725
G1 X199.12 Y127.043 E5.56468
G1 X199.18 Y128.01 E5.5969
G1 X199.18 Y131.986 E5.72914
G1 X199.155 Y132.61 E5.74992
G1 X198.978 Y133.767 E5.78884
G1 X195.999 Y146.668 E6.22922
G1 X195.783 Y147.427 E6.25547
G1 X195.491 Y148.161 E6.28175
G1 X195.126 Y148.861 E6.308
G1 X194.692 Y149.521 E6.33428
G1 X194.194 Y150.134 E6.36054
G1 X193.636 Y150.693 E6.38681
G1 X193.272 Y151.004 E6.40274
G1 X193.162 Y151.092 E6.40742
G1 X192.521 Y151.553 E6.43368
G1 X191.837 Y151.948 E6.45995
G1 X191.116 Y152.271 E6.48623
G1 X190.367 Y152.519 E6.51247
G1 X189.596 Y152.691 E6.53875
G1 X188.811 Y152.783 E6.56504
G1 X188.289 Y152.801 E6.58241
G1 X167.117 Y152.801 E7.28659
G1 X166.237 Y154.699 E7.35617
G1 X165.87 Y155.397 E7.3824
G1 X165.635 Y155.769 E7.39704
G1 X165.129 Y156.445 E7.42512
G1 X158.452 Y164.431 E7.77135
G1 X157.832 Y165.09 E7.80144
G1 X157.813 Y165.108 E7.80231
G1 X156.935 Y165.827 E7.84005
G1 X148.411 Y171.819 E8.1866
G1 X147.533 Y172.353 E8.22078
G1 X147.51 Y172.365 E8.22165
G1 X146.583 Y172.775 E8.25536
G1 X136.798 Y176.357 E8.60193
G1 X136.063 Y176.585 E8.62753
G1 X135.29 Y176.746 E8.65379
G1 X134.788 Y176.807 E8.67061
G1 X124.416 Y177.733 E9.01695
G1 X123.41 Y177.758 E9.05042
G1 X123.385 Y177.757 E9.05126
G1 X122.355 Y177.647 E9.08571
G1 X112.088 Y175.854 E9.43236
G1 X111.222 Y175.651 E9.46194
G1 X110.123 Y175.239 E9.50098
G1 X100.68 Y170.858 E9.84721
G1 X99.982 Y170.489 E9.87347
G1 X99.612 Y170.256 E9.88801
G1 X98.937 Y169.751 E9.91605
G1 X90.946 Y163.073 E10.26242
G1 X90.293 Y162.46 E10.29221
G1 X90.274 Y162.44 E10.29313
G1 X89.547 Y161.552 E10.3313
G1 X83.559 Y153.03 E10.67772
G1 X83.422 Y152.804 E10.68651
G1 X68.76 Y152.813 E11.17417
G1 X67.971 Y152.774 E11.20044
G1 X67.19 Y152.654 E11.22672
G1 X66.426 Y152.457 E11.25297
G1 X65.685 Y152.183 E11.27924
G1 X64.976 Y151.836 E11.3055
G1 X64.305 Y151.419 E11.33177
G1 X63.68 Y150.936 E11.35804
G1 X63.24 Y150.528 E11.378
G1 X63.123 Y150.411 E11.3835
G1 X62.593 Y149.825 E11.40978
G1 X62.126 Y149.189 E11.43603
G1 X61.725 Y148.509 E11.46228
G1 X61.395 Y147.791 E11.48857
G1 X61.14 Y147.044 E11.51482
G1 X60.961 Y146.275 E11.54108
G1 X60.861 Y145.491 E11.56737
G1 X60.838 Y144.901 E11.58701
G1 X60.82 Y115.135 E12.57703
G1 X60.859 Y114.346 E12.6033
G1 X60.979 Y113.565 E12.62958
G1 X61.176 Y112.801 E12.65583
G1 X61.45 Y112.06 E12.6821
G1 X61.797 Y111.351 E12.70836
G1 X62.214 Y110.68 E12.73463
G1 X62.697 Y110.055 E12.7609
G1 X63.105 Y109.615 E12.78086
G1 X63.222 Y109.498 E12.78636
G1 X63.8 Y108.975 E12.81229
G0 F1080 X63.808 Y108.968
G0 X64.444 Y108.501
G0 F6000 X64.698 Y108.813
G1 F1200 X65.363 Y108.427 E12.83787
G1 X66.065 Y108.112 E12.86346
G1 X66.796 Y107.872 E12.88905
G1 X67.547 Y107.709 E12.91461
G1 X68.312 Y107.625 E12.9402
G1 X68.733 Y107.613 E12.95421
G1 X83.894 Y107.604 E13.45847
G1 X84.883 Y105.47 E13.5367
G1 X85.44 Y104.477 E13.57457
G1 X85.456 Y104.453 E13.57553
G1 X85.936 Y103.811 E13.60219
G1 X92.613 Y95.825 E13.94841
G1 X93.201 Y95.2 E13.97695
G1 X93.22 Y95.182 E13.97782
G1 X94.053 Y94.5 E14.01363
G1 X102.577 Y88.508 E14.36018
G1 X103.41 Y88.001 E14.39261
G1 X103.433 Y87.989 E14.39347
G1 X104.313 Y87.601 E14.42546
G1 X114.098 Y84.021 E14.77201
G1 X114.796 Y83.804 E14.79632
G1 X115.549 Y83.648 E14.8219
G1 X116.005 Y83.593 E14.83717
G1 X126.379 Y82.665 E15.18359
G1 X127.334 Y82.642 E15.21537
G1 X127.359 Y82.643 E15.2162
G1 X128.335 Y82.747 E15.24884
G1 X138.598 Y84.538 E15.59535
G1 X139.422 Y84.731 E15.6235
G1 X140.464 Y85.122 E15.66052
G1 X149.911 Y89.505 E16.0069
G1 X150.902 Y90.061 E16.04469
G1 X150.926 Y90.077 E16.04565
G1 X151.568 Y90.557 E16.07231
G1 X159.554 Y97.234 E16.41853
G1 X160.179 Y97.822 E16.44707
G1 X160.197 Y97.841 E16.44794
G1 X160.879 Y98.674 E16.48375
G1 X166.871 Y107.198 E16.8303
G1 X167.116 Y107.601 E16.84599
G1 X188.289 Y107.601 E17.5502
G1 X189.057 Y107.641 E17.57578
G1 X189.817 Y107.76 E17.60137
G1 X190.56 Y107.958 E17.62694
G1 X191.279 Y108.232 E17.65253
G1 X191.965 Y108.579 E17.6781
G1 X192.912 Y109.223 E17.71619
G1 X193.022 Y109.311 E17.72088
G1 X193.597 Y109.822 E17.74646
G1 X194.115 Y110.39 E17.77203
G1 X194.572 Y111.008 E17.7976
G1 X194.962 Y111.671 E17.82318
G1 X195.282 Y112.371 E17.84878
G1 X195.609 Y113.424 E17.88545
G1 X198.587 Y126.321 E18.3257
G1 X198.723 Y127.092 E18.35173
G1 X198.78 Y128.01 E18.38233
G1 X198.78 Y131.986 E18.51457
G1 X198.756 Y132.58 E18.53434
G1 X198.588 Y133.677 E18.57125
G1 X195.609 Y146.578 E19.01163
G1 X195.398 Y147.317 E19.03719
G1 X195.11 Y148.031 E19.0628
G1 X194.75 Y148.711 E19.08839
G1 X194.322 Y149.349 E19.11395
G1 X193.829 Y149.94 E19.13954
G1 X193.022 Y150.691 E19.17621
G1 X192.912 Y150.779 E19.18089
G1 X192.287 Y151.228 E19.20649
G1 X191.619 Y151.609 E19.23207
G1 X190.915 Y151.919 E19.25765
G1 X190.183 Y152.155 E19.28323
G1 X189.43 Y152.313 E19.30882
G1 X188.289 Y152.401 E19.34689
G1 X166.862 Y152.401 E20.05955
G1 X165.875 Y154.531 E20.13763
G1 X165.318 Y155.523 E20.17547
G1 X165.302 Y155.547 E20.17643
G1 X164.822 Y156.189 E20.20309
G1 X158.145 Y164.175 E20.54931
G1 X157.557 Y164.8 E20.57785
G1 X157.538 Y164.818 E20.57872
G1 X156.705 Y165.5 E20.61453
G1 X148.181 Y171.492 E20.96108
G1 X147.348 Y171.999 E20.99351
G1 X147.325 Y172.011 E20.99438
G1 X146.446 Y172.399 E21.02633
G1 X136.661 Y175.981 E21.37291
G1 X135.962 Y176.198 E21.39725
G1 X135.209 Y176.354 E21.42283
G1 X134.752 Y176.409 E21.43814
G1 X124.38 Y177.335 E21.78448
G1 X123.426 Y177.358 E21.81622
G1 X123.401 Y177.357 E21.81705
G1 X122.424 Y177.253 E21.84973
G1 X112.157 Y175.46 E22.19638
G1 X111.334 Y175.267 E22.2245
G1 X110.292 Y174.876 E22.26151
G1 X100.849 Y170.495 E22.60774
G1 X99.858 Y169.939 E22.64554
G1 X99.834 Y169.923 E22.6465
G1 X99.194 Y169.444 E22.67309
G1 X91.203 Y162.766 E23.01946
G1 X90.583 Y162.185 E23.04772
G1 X90.564 Y162.165 E23.04864
G1 X89.874 Y161.322 E23.08487
G1 X83.886 Y152.8 E23.43129
G1 X83.646 Y152.404 E23.44669
G1 X68.759 Y152.413 E23.94183
G1 X67.991 Y152.373 E23.96741
G1 X67.231 Y152.254 E23.993
G1 X66.488 Y152.057 E24.01856
G1 X65.769 Y151.784 E24.04414
G1 X65.082 Y151.437 E24.06974
G1 X64.435 Y151.021 E24.09532
G1 X63.835 Y150.541 E24.12088
G1 X63.522 Y150.246 E24.13519
G1 X63.405 Y150.129 E24.14069
G1 X62.891 Y149.557 E24.16627
G1 X62.438 Y148.935 E24.19186
G1 X62.052 Y148.27 E24.21743
G1 X61.737 Y147.568 E24.24303
G1 X61.497 Y146.837 E24.26862
G1 X61.334 Y146.086 E24.29418
G1 X61.25 Y145.321 E24.31977
G1 X61.238 Y144.9 E24.33378
G1 X61.22 Y115.134 E25.3238
G1 X61.26 Y114.366 E25.34938
G1 X61.379 Y113.606 E25.37497
G1 X61.576 Y112.863 E25.40053
G1 X61.849 Y112.144 E25.42611
G1 X62.196 Y111.457 E25.45171
G1 X62.612 Y110.81 E25.47729
G1 X63.092 Y110.21 E25.50285
G1 X63.387 Y109.897 E25.51716
G1 X63.504 Y109.78 E25.52266
G1 X64.053 Y109.286 E25.54722
G0 F1080 X64.076 Y109.266
G0 X64.698 Y108.813
G0 F6000 X64.95 Y109.126
G1 F1200 X65.6 Y108.755 E25.57212
G1 X66.286 Y108.456 E25.59701
G1 X67 Y108.232 E25.62189
G1 X67.733 Y108.085 E25.64676
G1 X68.733 Y108.013 E25.68011
G1 X84.15 Y108.004 E26.19288
G1 X85.246 Y105.638 E26.2796
G1 X85.773 Y104.699 E26.31542
G1 X85.789 Y104.675 E26.31638
G1 X86.243 Y104.068 E26.34159
G1 X92.92 Y96.082 E26.68781
G1 X93.476 Y95.49 E26.71482
G1 X93.495 Y95.472 E26.71569
G1 X94.283 Y94.827 E26.74956
G1 X102.807 Y88.835 E27.09611
G1 X103.595 Y88.356 E27.12678
G1 X103.618 Y88.344 E27.12765
G1 X104.451 Y87.976 E27.15794
G1 X114.236 Y84.396 E27.50448
G1 X114.897 Y84.191 E27.5275
G1 X115.63 Y84.041 E27.55239
G1 X116.04 Y83.992 E27.56612
G1 X126.414 Y83.064 E27.91254
G1 X127.318 Y83.042 E27.94261
G1 X127.343 Y83.043 E27.94345
G1 X128.266 Y83.141 E27.97432
G1 X138.529 Y84.932 E28.32083
G1 X139.31 Y85.115 E28.34751
G1 X140.296 Y85.485 E28.38253
G1 X149.743 Y89.868 E28.72891
G1 X150.68 Y90.394 E28.76465
G1 X150.704 Y90.41 E28.76561
G1 X151.311 Y90.864 E28.79082
G1 X159.297 Y97.541 E29.13705
G1 X159.889 Y98.097 E29.16406
G1 X159.907 Y98.116 E29.16493
G1 X160.552 Y98.904 E29.1988
G1 X166.544 Y107.428 E29.54535
G1 X166.892 Y108.001 E29.56764
G1 X188.289 Y108.001 E30.27931
G1 X189.036 Y108.041 E30.30419
G1 X189.774 Y108.16 E30.32905
G1 X190.496 Y108.358 E30.35396
G1 X191.192 Y108.631 E30.37882
G1 X191.855 Y108.978 E30.40371
G1 X192.662 Y109.535 E30.43632
G1 X192.772 Y109.623 E30.44101
G1 X193.33 Y110.121 E30.46589
G1 X193.832 Y110.675 E30.49075
G1 X194.272 Y111.28 E30.51563
G1 X194.645 Y111.929 E30.54053
G1 X194.947 Y112.613 E30.5654
G1 X195.22 Y113.514 E30.59671
G1 X198.198 Y126.411 E31.03695
G1 X198.326 Y127.142 E31.06164
G1 X198.38 Y128.01 E31.09056
G1 X198.38 Y131.986 E31.2228
G1 X198.357 Y132.549 E31.24155
G1 X198.199 Y133.587 E31.27647
G1 X195.22 Y146.488 E31.71685
G1 X195.013 Y147.207 E31.74173
G1 X194.73 Y147.899 E31.7666
G1 X194.375 Y148.558 E31.7915
G1 X193.952 Y149.175 E31.81638
G1 X193.466 Y149.743 E31.84124
G1 X192.772 Y150.379 E31.87255
G1 X192.662 Y150.467 E31.87723
G1 X192.054 Y150.903 E31.90212
G1 X191.402 Y151.271 E31.92702
G1 X190.715 Y151.567 E31.9519
G1 X190.001 Y151.788 E31.97676
G1 X189.267 Y151.932 E32.00164
G1 X188.289 Y152.001 E32.03425
G1 X166.607 Y152.001 E32.75539
G1 X165.512 Y154.362 E32.84196
G1 X164.985 Y155.301 E32.87777
G1 X164.969 Y155.325 E32.87873
G1 X164.515 Y155.932 E32.90394
G1 X157.838 Y163.918 E33.25016
G1 X157.282 Y164.51 E33.27717
G1 X157.263 Y164.528 E33.27805
G1 X156.475 Y165.173 E33.31191
G1 X147.951 Y171.165 E33.65846
G1 X147.163 Y171.644 E33.68913
G1 X147.14 Y171.656 E33.69
G1 X146.308 Y172.023 E33.72024
G1 X136.523 Y175.605 E34.06681
G1 X135.861 Y175.811 E34.08987
G1 X135.128 Y175.961 E34.11476
G1 X134.716 Y176.01 E34.12856
G1 X124.344 Y176.936 E34.4749
G1 X123.442 Y176.958 E34.50491
G1 X123.417 Y176.957 E34.50575
G1 X122.493 Y176.859 E34.53665
G1 X112.226 Y175.066 E34.8833
G1 X111.446 Y174.883 E34.90995
G1 X110.46 Y174.513 E34.94498
G1 X101.017 Y170.132 E35.29121
G1 X100.08 Y169.606 E35.32695
G1 X100.056 Y169.59 E35.3279
G1 X99.45 Y169.137 E35.35307
G1 X91.459 Y162.459 E35.69944
G1 X90.873 Y161.909 E35.72617
G1 X90.854 Y161.889 E35.72709
G1 X90.202 Y161.092 E35.76134
G1 X84.214 Y152.57 E36.10776
G1 X83.869 Y152.004 E36.1298
G1 X68.759 Y152.013 E36.63236
G1 X68.012 Y151.973 E36.65724
G1 X67.274 Y151.854 E36.68211
G1 X66.552 Y151.657 E36.707
G1 X65.856 Y151.384 E36.73186
G1 X65.192 Y151.039 E36.75675
G1 X64.57 Y150.624 E36.78162
G1 X63.805 Y149.963 E36.81525
G1 X63.688 Y149.846 E36.82075
G1 X63.188 Y149.289 E36.84565
G1 X62.751 Y148.683 E36.8705
G1 X62.38 Y148.033 E36.89539
G1 X62.081 Y147.347 E36.92028
G1 X61.857 Y146.633 E36.94517
G1 X61.71 Y145.9 E36.97003
G1 X61.638 Y144.9 E37.00338
G1 X61.62 Y115.134 E37.9934
G1 X61.66 Y114.387 E38.01828
G1 X61.779 Y113.649 E38.04314
G1 X61.976 Y112.927 E38.06804
G1 X62.249 Y112.231 E38.0929
G1 X62.594 Y111.567 E38.11779
G1 X63.009 Y110.945 E38.14266
G1 X63.67 Y110.18 E38.17629
G1 X63.787 Y110.063 E38.18179
G1 X64.305 Y109.598 E38.20494
G0 F1080 X64.344 Y109.563
G0 X64.95 Y109.126
G0 F6000 X65.202 Y109.439
G1 F1200 X65.836 Y109.085 E38.22909
G1 X66.505 Y108.802 E38.25325
G1 X67.201 Y108.594 E38.27741
G1 X67.916 Y108.464 E38.30159
G1 X68.733 Y108.413 E38.32881
G1 X84.406 Y108.404 E38.8501
G1 X85.609 Y105.807 E38.94529
G1 X86.105 Y104.921 E38.97906
G1 X86.121 Y104.897 E38.98002
G1 X86.55 Y104.325 E39.0038
G1 X93.227 Y96.339 E39.35003
G1 X93.751 Y95.781 E39.37549
G1 X93.77 Y95.763 E39.37636
G1 X94.513 Y95.155 E39.40829
G1 X103.037 Y89.163 E39.75484
G1 X103.78 Y88.711 E39.78376
G1 X103.803 Y88.699 E39.78463
G1 X104.588 Y88.352 E39.81317
G1 X114.373 Y84.772 E40.15972
G1 X114.998 Y84.578 E40.18149
G1 X115.71 Y84.433 E40.20565
G1 X116.076 Y84.39 E40.21791
G1 X126.45 Y83.462 E40.56433
G1 X127.302 Y83.441 E40.59268
G1 X127.327 Y83.442 E40.59351
G1 X128.198 Y83.535 E40.62264
G1 X138.461 Y85.326 E40.96915
G1 X139.198 Y85.499 E40.99433
G1 X140.128 Y85.848 E41.02737
G1 X149.575 Y90.231 E41.37375
G1 X150.458 Y90.726 E41.40741
G1 X150.482 Y90.742 E41.40837
G1 X151.054 Y91.171 E41.43215
G1 X159.04 Y97.848 E41.77838
G1 X159.598 Y98.372 E41.80384
G1 X159.616 Y98.391 E41.80471
G1 X160.224 Y99.134 E41.83664
G1 X166.216 Y107.658 E42.18319
G1 X166.668 Y108.401 E42.21211
G1 X188.289 Y108.401 E42.93123
G1 X189.014 Y108.441 E42.95538
G1 X189.731 Y108.56 E42.97956
G1 X190.43 Y108.758 E43.00372
G1 X191.103 Y109.031 E43.02787
G1 X191.742 Y109.376 E43.05203
G1 X192.412 Y109.847 E43.07927
G1 X192.522 Y109.935 E43.08395
G1 X193.063 Y110.42 E43.10812
G1 X193.548 Y110.96 E43.13226
G1 X193.971 Y111.551 E43.15643
G1 X194.326 Y112.185 E43.1806
G1 X194.609 Y112.854 E43.20476
G1 X194.83 Y113.604 E43.23077
G1 X197.808 Y126.501 E43.67101
G1 X197.929 Y127.191 E43.69431
G1 X197.98 Y128.01 E43.7216
G1 X197.98 Y131.986 E43.85384
G1 X197.959 Y132.518 E43.87155
G1 X197.809 Y133.497 E43.90449
G1 X194.83 Y146.398 E44.34487
G1 X194.628 Y147.096 E44.36904
G1 X194.35 Y147.767 E44.3932
G1 X194 Y148.404 E44.41737
G1 X193.583 Y148.998 E44.44151
G1 X193.103 Y149.543 E44.46567
G1 X192.522 Y150.067 E44.49169
G1 X192.412 Y150.155 E44.49637
G1 X191.821 Y150.577 E44.52053
G1 X191.187 Y150.931 E44.54468
G1 X190.517 Y151.213 E44.56886
G1 X189.821 Y151.421 E44.59302
G1 X189.107 Y151.55 E44.61715
G1 X188.289 Y151.601 E44.64441
G1 X166.351 Y151.601 E45.37407
G1 X165.149 Y154.194 E45.46913
G1 X164.653 Y155.079 E45.50287
G1 X164.637 Y155.103 E45.50383
G1 X164.208 Y155.675 E45.52761
G1 X157.531 Y163.661 E45.87383
G1 X157.007 Y164.219 E45.89929
G1 X156.988 Y164.237 E45.90016
G1 X156.245 Y164.845 E45.9321
G1 X147.721 Y170.837 E46.27865
G1 X146.978 Y171.289 E46.30757
G1 X146.955 Y171.301 E46.30843
G1 X146.171 Y171.648 E46.33695
G1 X136.386 Y175.23 E46.68352
G1 X135.76 Y175.424 E46.70532
G1 X135.048 Y175.569 E46.72949
G1 X134.681 Y175.612 E46.74178
G1 X124.309 Y176.538 E47.08812
G1 X123.458 Y176.559 E47.11644
G1 X123.433 Y176.558 E47.11727
